X:83
T:Go from my window - Woodrich
%%VWML:SBG-1-2-61-0
F:http://www.vwml.org/record/SBG/1/2/61
Z:Original Sibelius transcriptions by M. & S. Graebe
M:4/4
I:linebreak $
K:G
V:1 treble nm="P1"
V:1
 D2 | G2 GA B2 B2 | AG EF | (GF)E | AB c2 c2 | B2 BB !fermata!A2 | G A B2 B |$ c B E3 | %8
 F G A G c B | G2 F2 G/F/ E3 | B2 c d2 c | B2 A (B2 A) | %12
T:Go from my window - Hard
F:http://www.vwml.org/record/SBG/1/2/61
Z:Original Sibelius transcriptions by M. & S. Graebe
M:4/4
I:linebreak $
K:G
V:1 treble nm="P1"
V:1
 D | G2 GA B2 AG | A2 BA G4 | Bc d2 ed B2 | AG A4 Bc | de dB G2 AB |$ cd cA F2 GA | B2 cB A2 BA | %8
w: ||||||||
 G8 | GF E2 ^CE B2 | cB A2 GA B2 | AF E6 | %12
w: |Ere the day light ap pears|Then _ come ere the day|light ap pears|
T:Go from my window - Barrett
F:http://www.vwml.org/record/SBG/1/2/61
Z:Original Sibelius transcriptions by M. & S. Graebe
M:4/4
I:linebreak $
K:Bb
V:1 treble nm="P1"
V:1
 G2 G A B2 A G | ^F2 G2 D4 | G2 G A B2 A B | c6 AB |$ c B c A d2 A A | B B A G A2 D D | %6
 G G G A B2 A2 | G8 | %8
T:Go from my window - Chappell p 141
F:http://www.vwml.org/record/SBG/1/2/61
Z:Original Sibelius transcriptions by M. & S. Graebe
M:4/4
I:linebreak $
K:A
V:1 treble nm="P1"
V:1
 A2 AB c2 B>B | A8 | B2 Bc d2 c>c | B6 B2 |$ B2 Bc d2 cB | ABcA B2 E2 | A2 AB c2 B2 | A8 | %8
T:Go from my window - Chappell p 142
F:http://www.vwml.org/record/SBG/1/2/61
Z:Original Sibelius transcriptions by M. & S. Graebe
M:4/4
I:linebreak $
K:C
V:1 treble nm="P1"
V:1
 A2 AB c2 BA | ^G2 A2 E4 | A2 AB c2 Bc | d6 Bc |$ dcdB e2 BB | ccBA B2 EE | A2 AB c2 B2 | A8 | %8





